X:1
T:Als Maria, die Jungfraw
T:André Vierendeels
T:Melody by Georg Vogler (1625) (Soprano voice)
T:Source : Catechismus---Würzburg---J.Volmari---1652. Editor : André Vierendeels (17/10/17).
T:Notes : Original clef : C1, other voices supplied editorially Original note values have been quartered Editorial accidentals above the staff Text Middle German
T:Als Maria, die Jungfraw
T:©
T:©
T:©
C:André Vierendeels
Z:©
%%score [ 1 2 3 ]
L:1/8
Q:1/4=120
M:3/4
K:C
V:1 treble nm="Soprano" snm="S"
V:2 treble-8 nm="Tenor" snm="T"
V:3 bass nm="Bass" snm="B"
V:1
 z2 z2 D2 |"^1)" F4 G2 | A4 G2 | F2 D2 E2 | D4 d2 | d4 e2 | d4 A2 | c4 B2 | !fermata!A4 A2 | %9
w: Als|Ma- *|ri- a,|die Jung- fraw|schon, ge-|boh- ren|hatt ihr|lie- ben|Sohn, zu|
w: Ne-|ben dem|schö- nen|Kin- * de-|lein, stund|Jo- seph|und Ma-|ri- a|rein, um-|
 c4 c2 | B3 c d2 | c3 B A2 | G4 ^F2 | G4 G2 | A4 ^F2 | G3 F E2 |"^#" !fermata!D4 F2 | F2 F2 F2 | %18
w: Beth- le-|hem _ in|ei- * nem|Stall, und|nicht in|kö- nig-|li- * chem|Saal, wick-|let sie ihm|
w: ringt mit|ei- * ner|gros- * sen|Schaar der|lie- ben|En- ge-|lein hell und|klar, die|sun- gen mit|
 F2- F2 D2 | F3 G FE | D6 | D2 F2 F2 | G2 A4 | B2 c3 B | AG !fermata!F4 | D3 E FG | A4 G2 | %27
w: in _ Win-|* * de- *|lein,|und legt ihn|in das|Krip- * *|pe- * lein,|Al- * le- *|lu- ja,|
w: in- nig- keit|Lob, _ _ _|Preysz|und Danck in|E- *||wig- * keit,|Al- * le- *|lu- ja,|
 F2 D2 E2 | F6 |] %29
w: Al- le- lu-|ja.|
w: Al- le- lu-|ja.|
V:2
"^1)" A6 |"^2)" d4 e2 | c4 e2 | d2 A2 A2 | A4 A2 | A4 c2 | A4 A2 | G4 d2 | !fermata!c4 e2 | e4 e2 | %10
w: Als|Ma- *|ri- a,|die Jung- fraw|schon, ge-|boh- ren|hatt ihr|lie- ben|Sohn, zu|Beth- le-|
w: Jo-|seph, der|fromm Gott-|se- lig Mann,|zünd dann|im _|Stall sein|Ker- tzen|an, sucht|ob er-|
 d3 c A2 | c3 d c2 | d4 d2 | d4 B2 | d4 A2 | B3 d c2 | !fermata!A4 A2 | A2 c2 d2 | c4 B2 | %19
w: hem _ in|ei- * nem|Stall, und|nicht in|kö- nig-|li- * chem|Saal, wick-|let sie ihm|in Win-|
w: umb _ sein|e- * del|Kind im|Geist ge-|boh- rne|Chri- * sten|sind, und|treibt dar- nach|mit _|
 c3 B A2 | A6 | A2 d2 A2 | B2 c4 | d2 e3 d | d2 !fermata!A4 | A3 G AG | c4 e2 | d2 A2 c2 | A6 |] %29
w: * * de-|lein,|und legt ihm|in das|Krip- * *|pe- lein,|Al- * le- *|lu- ja,|Al- le- lu-|ja.|
w: sei- * nem|Stab,|Hey- den, Ju-|den und|Ket- * *|zer ab,|Al- * le- *|lu- ja,|Al- le- lu-|ja.|
V:3
"^3)""^1)""^4)" D,6 | D,4 C,2 | F,4 C,2 | D,2 D,2 A,,2 | D,4 F,2 | D,4 C,2 | D,4 F,2 | C,4 G,2 | %8
w: Als|Mar- *|ri- a,|die Jung- fraw|schon, ge-|boh- ren|hatt ihr|lie- ben|
w: O|Mensch du|must _|ge- boh- ren|seyn wilst|an- ders|in den|Stall hin-|
 !fermata!F,4 A,,2 | C,4 A,,2 | G,,3 A,, D,2 | C,3 D, A,2 | G,4 D,2 | G,4 G,2 | D,4 D,2 | %15
w: Sohn, zu|Beth- le-|hem _ in|ei- * nem|Stall, und|nicht in|kö- nig-|
w: ein, durch|das hei-|li- * ge|Sa- * cra-|ment der|Wi- der-|ge- burth|
 G,3 A, A,2 | !fermata!D,4 D,2 | F,2 A,2 D,2 | F,4 G,2 | A,3 E, D,C, | D,6 | D,2 D,2 D,2 | %22
w: li- * chem|Saal, wick-|let sie ihm|in Win-|* * de- *|lein,|und legt ihm|
w: sonst _ ge-|nennt ein|Was- ser- bad|das uns|nimbt _ _ _|ab|der Sün- den,|
 G,2 F,4 | G,2 C,3 D, | F,E, !fermata!D,4 | D,3 C, D,E, | F,4 C,2 | D,2 D,2 A,,2 | D,6 |] %29
w: in das|Krip- * *|pe- * lein,|Al- * le- *|lu- ja,|Al- le- lu-|ja.|
w: Schuld und|Straff zu _|_ _ Tag,|Al- * le- *|lu- ja,|Al- le- lu-|ia.|

